X: 14
T: Kylebrack Rambler, The
C: Finbarr Dwyer
Z: Erik-Fiddler
S: https://thesession.org/tunes/361#setting48594
R: reel
M: 4/4
L: 1/8
K: Dmix
|:DA, ~(3A,/A,/A,/A, DA,=FA,|DA, ~(3A,/A,/A,/A, CA,G,A,|DA, ~(3A,/A,/A,/A, (3D/D/D/D DE|FGAF GD E/F/G|
Ad~(3d/d/d/d dcAB|cGAc GECE|DCA,G, A,D (3D/D/D/D|1 FAGE DE=FE:|2 FAGE DEFG||
|:A/B/A GE FDFA|[d3D3] d {e} dcAB|c2 Gc EcGc|cdec dcAc|
(3d/d/d/d fd eA (3A/A/A/A|^cA (3A/A/A/A EA (3A/A/A/A|GEED CD E/F/G|cAGE D2 FG:|
AD (3D/D/D/D A,D (3D/D/D/D|dA (3A/A/A/A dcAB|c2 B/c/d cAGE|Cc B/c/d cAGE|
FDDC [DA,]DFA|dA (3A/A/A/A dcAB|c2 B/c/d cAGE|CDEC DEFG|
AD F/E/D A,DFA|dA (3A/A/A/A dcAB|c/c/c B/c/d cAGE|Cc B/c/d cAGE|
FDDC [DA,]DFA|dA [D2A2] dcAB|[E2c2] B/c/d cAGE| CDEC DE=FE||

